!!!OTL: Po upadku czlowieka
**kern
*staff1
=1-
*clefC2
*k[b-]
*met(c|)
*M2/2
2f\
2f\
2f\
2B-/
=2
2f\
2f\
2e-\
2f\
=3
1c
1f
=4
!!linebreak:original
2f\
2d/
2g\
2f\
=5
2d/
2e\
2f\
2a\
=6
1g
1c
!!linebreak:original
=7
2f\
2f\
2f\
2B-/
=8
2f\
2f\
2e-\
2f\
=9
1c
0f
==
*-
!!title: @{OTL}, @{GTL}, ed. @{ENC}
!!!pag:
!!!GTL: Hymnbook D
!!!EFL: 
!!!YEM: Creative Commons CC/BY/NC/SA 4.0
!!!ENC: Marcin Konik
!!!END: 2015-0m-dd
!!!EED: Marcin Konik
!!!EEV: 
!!!ONB: Encoded in vim by Marcin Konik
!!!CharacterEncoding: utf-8
!!!RDF**kern: l=long note in original notation
!!!RDF**kern: i=editorial accidental
!!muse2ps: z14jc180F
!!!COM: Anonim
!!!CDT: [?]
!!!TXO: Polish
!!!ODT: 
!!!GTL: Hymnbook D
!!!ARL: Opactwo św. Wojciecha, Staniątki 
!!!voices:	1
